Yaru++/actions/16/distribute-graph-directed.svg

<svg viewBox="0 0 24 24" xmlns="http://www.w3.org/2000/svg"><path d="m16.78125 6.5625-3.84375 4.1875.75.6875 3.84375-4.1875c-.141664-.135392-.473397-.422808-.75-.6875zm-9.5625.0625-.75.6875 3.808594 4.101562.753906-.695312zm4.28125 7.8125v2.125h1v-2.125c-.397143.0044-.704794.000696-1 0z" fill="#808080"/><path d="m5.5 4a1.4999959 1.5 0 0 0 -1.5 1.5 1.4999959 1.5 0 0 0 1.5 1.5 1.4999959 1.5 0 0 0 1.5-1.5 1.4999959 1.5 0 0 0 -1.5-1.5zm13 0a1.4999959 1.5 0 0 0 -1.5 1.5 1.4999959 1.5 0 0 0 1.5 1.5 1.4999959 1.5 0 0 0 1.5-1.5 1.4999959 1.5 0 0 0 -1.5-1.5zm-6.5 7a1.4999959 1.5 0 0 0 -1.5 1.5 1.4999959 1.5 0 0 0 1.5 1.5 1.4999959 1.5 0 0 0 1.5-1.5 1.4999959 1.5 0 0 0 -1.5-1.5zm0 6a1.4999959 1.5 0 0 0 -1.5 1.5 1.4999959 1.5 0 0 0 1.5 1.5 1.4999959 1.5 0 0 0 1.5-1.5 1.4999959 1.5 0 0 0 -1.5-1.5z" fill="#1d99f3"/></svg>

<svg xmlns="http://www.w3.org/2000/svg" viewBox="0 0 24 24">
 <defs>
  <style id="current-color-scheme" type="text/css">
   .ColorScheme-Text { color:#808080; } .ColorScheme-Highlight { color:#1d99f3; }
  </style>
 </defs>
 <path style="fill:currentColor" class="ColorScheme-Text" d="M 16.78125 6.5625 L 12.9375 10.75 L 13.6875 11.4375 L 17.53125 7.25 C 17.389586 7.114608 17.057853 6.827192 16.78125 6.5625 z M 7.21875 6.625 L 6.46875 7.3125 L 10.277344 11.414062 L 11.03125 10.71875 L 7.21875 6.625 z M 11.5 14.4375 L 11.5 16.5625 L 12.5 16.5625 L 12.5 14.4375 C 12.102857 14.4419 11.795206 14.438196 11.5 14.4375 z"/>
 <path style="fill:currentColor" class="ColorScheme-Highlight" d="M 5.5 4 A 1.4999959 1.5 0 0 0 4 5.5 A 1.4999959 1.5 0 0 0 5.5 7 A 1.4999959 1.5 0 0 0 7 5.5 A 1.4999959 1.5 0 0 0 5.5 4 z M 18.5 4 A 1.4999959 1.5 0 0 0 17 5.5 A 1.4999959 1.5 0 0 0 18.5 7 A 1.4999959 1.5 0 0 0 20 5.5 A 1.4999959 1.5 0 0 0 18.5 4 z M 12 11 A 1.4999959 1.5 0 0 0 10.5 12.5 A 1.4999959 1.5 0 0 0 12 14 A 1.4999959 1.5 0 0 0 13.5 12.5 A 1.4999959 1.5 0 0 0 12 11 z M 12 17 A 1.4999959 1.5 0 0 0 10.5 18.5 A 1.4999959 1.5 0 0 0 12 20 A 1.4999959 1.5 0 0 0 13.5 18.5 A 1.4999959 1.5 0 0 0 12 17 z"/>
</svg>
